X:1
T:g
T:a 111
L:1/4
M:4/4
I:linebreak $
K:G
V:1 treble nm="Voice" snm="Voice"
V:1
 A A c2 | A A"G" G2 | A/A/A/A/ c d | e/d/ c A2 ::$ e a g a/g/ | e a d2 | e a g a/g/ | %7
w: Cluck old hen|cluck and lay|you ain't laid an egg since|* late last May|My old hen she's a|good old hen,|she lays eggs for the|
w: Cluck old hen|cluck and squall|you ain't laid an egg since|* late last fall||||
"E7" e/d/ c A2 :| %8
w: rail- * road men|
w: |
